X:1
T:Worship (Crawford), 10.0.11.11
T:Worship (Crawford), 10.0.11.11
T:Edward Patrick Crawford (1846-1912)
T:Public Domain Courtesy of the Cyber Hymnal™
C:Edward Patrick Crawford (1846-1912)
Z:Public Domain
Z:Courtesy of the Cyber Hymnal™
%%score ( 1 2 ) ( 3 4 )
L:1/8
Q:1/4=118
M:3/4
K:F
V:1 treble 
V:2 treble 
V:3 bass 
V:4 bass 
V:1
 C2 | F2 A2 [Ec]2 | [Ff]4 [Fe]2 | [Fd]2 [Fd]2 [Fd]2 | [Fc]4 C2 | [CF]2 [FA]2 [Fc]2 | %6
 (B2 A2) [DG]2 | F2 [=B,E]2 [B,D]2 | [CG]4 [Ec]2 | [Ec]2 [Ed]2 [Ec]2 | [Fc]2 [Af]2 [Gd]2 | %11
 [Fc]2 [Fd]2 [Gc]2 | [FA]4 [Gc]2 | [Ff]2 [Fe]2 [Fd]2 | [Fc]2 F2 [FB]2 | [FA]2 [FB]2 [EG]2 | %16
 [CF]4 |] %17
V:2
 C2 | F2 A2 x2 | x6 | x6 | x4 C2 | x6 | F4 x2 | (DC) x4 | x6 | x6 | x6 | x6 | x6 | x6 | x2 F2 x2 | %15
 x6 | x4 |] %17
V:3
 C,2 | F,2 A,2 [G,B,]2 | [F,A,]4 [A,,C]2 | [B,,B,]2 B,2 B,2 | [F,A,]4 [G,B,]2 | %5
 [F,A,]2 [F,C]2 [_E,A,]2 | ([D,B,]2 [C,C]2) [B,,D]2 | [D,A,]2 G,2 [F,G,]2 | [E,G,]4 [C,C]2 | %9
 [B,C]2 [B,C]2 [B,C]2 | [A,C]2 [F,C]2 (CB,) | [F,A,]2 [D,A,]2 [E,C]2 | [F,C]4 [E,C]2 | %13
 [D,A,]2 [C,A,]2 [B,,B,]2 | [A,,C]2 [D,A,]2 [D,B,]2 | [C,C]2 [B,,D]2 (CB,) | [F,A,]4 |] %17
V:4
 C,2 | F,2 A,2 x2 | x6 | x2 (B,,C,) (D,E,) | x6 | x6 | x6 | x2 G,2 x2 | x6 | x6 | x4 E,2 | x6 | %12
 x6 | x6 | x6 | x4 C,2 | x4 |] %17

